build/images/icons/next.svg

<svg width="70" height="70" viewBox="0 0 70 70" fill="none" xmlns="http://www.w3.org/2000/svg">
<path d="M35 68.9062C53.7305 68.9062 68.9062 53.7305 68.9062 35C68.9062 16.2695 53.7305 1.09375 35 1.09375C16.2695 1.09375 1.09375 16.2695 1.09375 35C1.09375 53.7305 16.2695 68.9062 35 68.9062ZM19.1406 28.9844H35V19.291C35 17.8281 36.7773 17.0898 37.8027 18.1289L53.4297 33.8379C54.0723 34.4805 54.0723 35.5059 53.4297 36.1484L37.8027 51.8711C36.7637 52.9102 35 52.1719 35 50.709V41.0156H19.1406C18.2383 41.0156 17.5 40.2773 17.5 39.375V30.625C17.5 29.7227 18.2383 28.9844 19.1406 28.9844Z" fill="black"/>
</svg>

<svg width="70" height="70" fill="none" xmlns="http://www.w3.org/2000/svg"><path d="M35 68.906c18.73 0 33.906-15.176 33.906-33.906C68.906 16.27 53.73 1.094 35 1.094 16.27 1.094 1.094 16.27 1.094 35 1.094 53.73 16.27 68.906 35 68.906zM19.14 28.984H35v-9.693c0-1.463 1.777-2.201 2.803-1.162L53.43 33.838a1.626 1.626 0 010 2.31L37.803 51.871c-1.04 1.04-2.803.3-2.803-1.162v-9.693H19.14c-.902 0-1.64-.739-1.64-1.641v-8.75c0-.902.738-1.64 1.64-1.64z" fill="#000"/></svg>
